( loch )
( Mach2/3 Postprocessor )
N20G00G21G17G90G40G49G80
N30G71
N40T4M06
N50G00G43Z20.000H4
N60S8000M03
N70G94
N80X0.000Y0.000F300.0
N90G00X8.106Y22.177Z6.000
N100G01Z-4.100F250.0
N110G2X7.856Y21.927I-0.250J0.000F300.0
N120G2X7.606Y22.177I0.000J0.250
N130G2X7.856Y22.427I0.250J0.000
N140G2X8.106Y22.177I0.000J-0.250
N150G00Z6.000
N160G00X25.281Y9.827
N170G01Z-4.100F250.0
N180G2X25.031Y9.577I-0.250J0.000F300.0
N190G2X24.781Y9.827I0.000J0.250
N200G2X25.031Y10.077I0.250J0.000
N210G2X25.281Y9.827I0.000J-0.250
N220G00Z6.000
N230G00Y34.527
N240G01Z-4.100F250.0
N250G2X25.031Y34.277I-0.250J0.000F300.0
N260G2X24.781Y34.527I0.000J0.250
N270G2X25.031Y34.777I0.250J0.000
N280G2X25.281Y34.527I0.000J-0.250
N290G00Z6.000
N300G00X143.281
N310G01Z-4.100F250.0
N320G2X143.031Y34.277I-0.250J0.000F300.0
N330G2X142.781Y34.527I0.000J0.250
N340G2X143.031Y34.777I0.250J0.000
N350G2X143.281Y34.527I0.000J-0.250
N360G00Z6.000
N370G00X160.456Y22.177
N380G01Z-4.100F250.0
N390G2X160.206Y21.927I-0.250J0.000F300.0
N400G2X159.956Y22.177I0.000J0.250
N410G2X160.206Y22.427I0.250J0.000
N420G2X160.456Y22.177I0.000J-0.250
N430G00Z6.000
N440G00X143.281Y9.827
N450G01Z-4.100F250.0
N460G2X143.031Y9.577I-0.250J0.000F300.0
N470G2X142.781Y9.827I0.000J0.250
N480G2X143.031Y10.077I0.250J0.000
N490G2X143.281Y9.827I0.000J-0.250
N500G00Z6.000
N510G00X30.031Y10.577Z6.000
N520G01Z-4.100F250.0
N530G2X28.781Y11.827I0.000J1.250F300.0
N540G01Y20.665
N550Z-1.100
N560Y23.165
N570G01Z-4.100F250.0
N580G01Y32.527F300.0
N590G2X30.031Y33.777I1.250J0.000
N600G01X36.031
N610G2X37.281Y32.527I0.000J-1.250
N620G01Y22.971
N630Z-1.100
N640Y20.471
N650G01Z-4.100F250.0
N660G01Y11.827F300.0
N670G2X36.031Y10.577I-1.250J0.000
N680G01X30.031
N690G00Z6.000
N700G00X15.031Y3.927Z6.000
N710G01Z-4.100F250.0
N720G01X31.135F300.0
N730Z-1.100
N740X33.635
N750G01Z-4.100F250.0
N760G01X131.688F300.0
N770Z-1.100
N780X134.188
N790G01Z-4.100F250.0
N800G01X153.031F300.0
N810G3X154.781Y5.677I0.000J1.750
N820G01Y9.098
N830G3Y35.256I-0.750J13.079
N840G01Y38.677
N850G3X153.031Y40.427I-1.750J0.000
N860G01X133.019
N870Z-1.100
N880X130.519
N890G01Z-4.100F250.0
N900G01X33.051F300.0
N910Z-1.100
N920X30.551
N930G01Z-4.100F250.0
N940G01X15.031F300.0
N950G3X13.281Y38.677I0.000J-1.750
N960G01Y35.256
N970G3Y9.098I0.750J-13.079
N980G01Y5.677
N990G3X15.031Y3.927I1.750J0.000
N1000G00Z6.000
N1010G00Z20.000
N1020G00X0.000Y0.000
N1030M09
N1040M30
%
